X: 7
T: Haste To The Wedding
R: jig
M: 6/8
L: 1/8
K: Dmaj
dB|AFA ~A2f|ede fdB|~A3 FGA| ~G3 EFG|
~A3 ~f3|~e3 fdB|~A3 faf|gfe dcB|
A(3FGA A(3gfe|~f3 edB|A(3FGA D(3DDD|~G3 ~E3|
AFD FAd|e(3gfe dBA|~A3 faf|edc d(3efg||
~a3 afa|~b3 bgb|~a3 fga|~g3 ~e3|
afa faf| ~e3 fdB|~A3 faf| gfe d(3efg|
afd fga|bgd gab|a(3fgf g(3efe|f(3Bcd efg|
afa bc'd'|bgb afe|d(3Bcd faf|edc d||


Tune 582	Setting 29837

